<?xml version="1.0" encoding="UTF-8"?>
<map version="1.10" tiledversion="1.11.2" orientation="orthogonal" renderorder="right-down" width="18" height="10" tilewidth="8" tileheight="8" infinite="0" nextlayerid="3" nextobjectid="2">
 <editorsettings>
  <export target="room.lua" format="lua"/>
 </editorsettings>
 <tileset firstgid="1" name="spritesheet" tilewidth="8" tileheight="8" tilecount="1024" columns="32">
  <image source="../spritesheet.png" width="256" height="256"/>
  <tile id="4">
   <properties>
    <property name="col" type="bool" value="true"/>
   </properties>
  </tile>
  <tile id="5">
   <properties>
    <property name="col" type="bool" value="true"/>
   </properties>
  </tile>
  <tile id="6">
   <properties>
    <property name="col" type="bool" value="true"/>
   </properties>
  </tile>
  <tile id="7">
   <properties>
    <property name="col" type="bool" value="true"/>
   </properties>
  </tile>
  <tile id="8">
   <properties>
    <property name="col" type="bool" value="true"/>
   </properties>
  </tile>
  <tile id="9">
   <properties>
    <property name="col" type="bool" value="true"/>
   </properties>
  </tile>
  <tile id="10">
   <properties>
    <property name="col" type="bool" value="true"/>
   </properties>
  </tile>
  <tile id="11">
   <properties>
    <property name="col" type="bool" value="true"/>
   </properties>
  </tile>
  <tile id="36">
   <properties>
    <property name="col" type="bool" value="true"/>
   </properties>
  </tile>
  <tile id="37">
   <properties>
    <property name="col" type="bool" value="true"/>
   </properties>
  </tile>
  <tile id="38">
   <properties>
    <property name="col" type="bool" value="true"/>
   </properties>
  </tile>
  <tile id="39">
   <properties>
    <property name="col" type="bool" value="true"/>
   </properties>
  </tile>
  <tile id="40">
   <properties>
    <property name="col" type="bool" value="true"/>
   </properties>
  </tile>
  <tile id="41">
   <properties>
    <property name="col" type="bool" value="true"/>
   </properties>
  </tile>
  <tile id="42">
   <properties>
    <property name="col" type="bool" value="true"/>
   </properties>
  </tile>
  <tile id="43">
   <properties>
    <property name="col" type="bool" value="true"/>
   </properties>
  </tile>
  <tile id="64">
   <properties>
    <property name="col" type="bool" value="true"/>
   </properties>
  </tile>
  <tile id="65">
   <properties>
    <property name="col" type="bool" value="true"/>
   </properties>
  </tile>
  <tile id="66">
   <properties>
    <property name="col" type="bool" value="true"/>
   </properties>
  </tile>
  <tile id="68">
   <properties>
    <property name="col" type="bool" value="true"/>
   </properties>
  </tile>
  <tile id="69">
   <properties>
    <property name="col" type="bool" value="true"/>
   </properties>
  </tile>
  <tile id="70">
   <properties>
    <property name="col" type="bool" value="true"/>
   </properties>
  </tile>
  <tile id="71">
   <properties>
    <property name="col" type="bool" value="true"/>
   </properties>
  </tile>
  <tile id="72">
   <properties>
    <property name="col" type="bool" value="true"/>
   </properties>
  </tile>
  <tile id="73">
   <properties>
    <property name="col" type="bool" value="true"/>
   </properties>
  </tile>
  <tile id="74">
   <properties>
    <property name="col" type="bool" value="true"/>
   </properties>
  </tile>
  <tile id="75">
   <properties>
    <property name="col" type="bool" value="true"/>
   </properties>
  </tile>
  <tile id="96">
   <properties>
    <property name="col" type="bool" value="true"/>
   </properties>
  </tile>
  <tile id="98">
   <properties>
    <property name="col" type="bool" value="true"/>
   </properties>
  </tile>
  <tile id="100">
   <properties>
    <property name="col" type="bool" value="true"/>
   </properties>
  </tile>
  <tile id="101">
   <properties>
    <property name="col" type="bool" value="true"/>
   </properties>
  </tile>
  <tile id="102">
   <properties>
    <property name="col" type="bool" value="true"/>
   </properties>
  </tile>
  <tile id="103">
   <properties>
    <property name="col" type="bool" value="true"/>
   </properties>
  </tile>
  <tile id="104">
   <properties>
    <property name="col" type="bool" value="true"/>
   </properties>
  </tile>
  <tile id="105">
   <properties>
    <property name="col" type="bool" value="true"/>
   </properties>
  </tile>
  <tile id="106">
   <properties>
    <property name="col" type="bool" value="true"/>
   </properties>
  </tile>
  <tile id="107">
   <properties>
    <property name="col" type="bool" value="true"/>
   </properties>
  </tile>
  <tile id="128">
   <properties>
    <property name="col" type="bool" value="true"/>
   </properties>
  </tile>
  <tile id="129">
   <properties>
    <property name="col" type="bool" value="true"/>
   </properties>
  </tile>
  <tile id="130">
   <properties>
    <property name="col" type="bool" value="true"/>
   </properties>
  </tile>
  <tile id="160">
   <properties>
    <property name="col" type="bool" value="true"/>
   </properties>
  </tile>
  <tile id="161">
   <properties>
    <property name="col" type="bool" value="true"/>
   </properties>
  </tile>
  <tile id="162">
   <properties>
    <property name="col" type="bool" value="true"/>
   </properties>
  </tile>
  <tile id="194">
   <properties>
    <property name="col" type="bool" value="true"/>
   </properties>
  </tile>
  <tile id="226">
   <properties>
    <property name="col" type="bool" value="true"/>
   </properties>
  </tile>
  <tile id="258">
   <properties>
    <property name="col" type="bool" value="true"/>
   </properties>
  </tile>
 </tileset>
 <layer id="1" name="terrain" width="18" height="10">
  <data encoding="csv">
165,165,165,165,165,165,165,165,165,165,165,165,165,165,165,165,165,165,
165,165,165,165,165,165,165,165,165,165,165,165,165,165,165,165,165,165,
165,165,165,165,165,165,165,165,165,165,165,165,165,165,165,165,165,165,
165,165,165,165,165,165,165,165,165,165,165,165,165,165,165,165,165,165,
165,165,165,165,165,165,165,165,165,165,165,165,165,165,165,165,165,165,
165,165,165,165,165,165,165,165,165,165,165,165,165,165,165,165,165,165,
165,165,165,165,165,165,165,165,165,165,165,165,165,165,165,165,165,165,
165,165,165,165,165,165,165,165,165,165,165,165,165,165,165,165,165,165,
165,165,165,165,165,165,165,165,165,165,165,165,165,165,165,165,165,165,
165,165,165,165,165,165,165,165,165,165,165,165,165,165,165,165,165,165
</data>
 </layer>
 <objectgroup id="2" name="data">
  <object id="1" x="0" y="0">
   <properties>
    <property name="kind" value="spawn"/>
    <property name="name" value="init"/>
   </properties>
   <point/>
  </object>
 </objectgroup>
</map>
